X: 24
T:The Eastern Townships
R:Air
C:Michael Grey
M:6/8
L:1/8
K:Hp
e | A>BA A>Bd | e3 a2f | g>fd e<BA | G>BA B2e |
A>BA A>Bd | e3 a2f | g>fd e<BG | A3 A2 :|
e/2f/2 | g>fd e>ag | f>dB d>ef | g>fd e<BA | G>BA B2e/2f/2 |
g>fd e>ag | f>dB d>ef | g>fd e<BG | A3 A2 :|

